X:1
T:Els Sagados　(Himne Nacional de Catalunya)
T:Els Sagados　(Himne Nacional de Catalunya)
T:収穫人たち
T:Francesc Alió / Arr. Librecht, Ako Fujiwaka
T:Emili Guanyavents
C:Francesc Alió
Z:Emili Guanyavents
%%score { 1 | 2 }
L:1/8
Q:1/4=80
M:2/4
K:Bb
V:1 treble nm="Piano" snm="Pno."
V:2 bass 
V:1
 z4 | z4 | z4 | z2 (3:2:2G2 A | B3 z | (3:2:2z c2 (3:2:2A2 B | G3 z | z2 (3:2:2B2 c | d3 z | %9
 (3:2:2z d2 fd | c2 B2 | z2 (3:2:2B2 c | d3 z | (3:2:2z e2 AB | c3 z | z2 (3:2:2B2 c | d3 z | %17
 z c- (3cBA | (3:2:2B2 G- G2 | z4 | [GBdg]2 (3[GBdg][GBdg][GBdg] | [GBdg]2 (3[D^FAd][DFAd][DFAd] | %22
 [GBdg]2 (3[GBdg][GBdg][GBdg] | [GBdg]2 (3[GBdg][GBdg][GBdg] | [Bdfb]2 (3[Bdfb][Bdfb][Bdfb] | %25
 [Bdfb]2 (3[Bdfb][Bdfb][Bdfb] | [Ad^fa]2 (3[Bd=fb][Bdfb][Bdfb] | [Bdfb]2 (3[Bdfb][Bdfb][Bdfb] | %28
 [Bdfb]2 (3[Bdfb][Bdfb][Bdfb] | [Bdfb]2 (3[Bdfb][Bdfb][Bdfb] | [Ad^fa]2 (3[Adfa][Adfa][Adfa] | %31
 [Ad^fa]2 (3[Adfa][Adfa][Adfa] | [Ad^fa]2 (3[Adfa][Adfa][Adfa] | [Ad^fa]2 (3[Adfa][Adfa][Adfa] | %34
 [GBdg]2 (3[GBdg][GBdg][GBdg] | [GBdg]2 (3:2:2[G,G]2 [A,A] | [B,B]3 z | %37
 (3:2:2z [Cc]2 (3[A,A][B,B][A,A] | [G,G]3 z | z2 (3:2:2[B,B] [Cc]2 | [Dd]3 z | %41
 (3:2:2z [Dd]2 [Ff][Dd] | [Cc]2 [B,B]2 | z2 (3:2:2[B,B]2 [Cc] | [Dd]3 z | %45
 (3:2:2z [Ee]2 [A,A][B,B] | [Cc]3 z | z2 (3:2:2[B,B]2 [Cc] | [Dd]3 z | (3:2:2z [Cc]2 [B,B][A,A] | %50
 (3:2:2[B,B]2 [G,G]- [G,G]2 | z2 (3GGG | G3 z | z2 (3[Dd][Dd]3/2[Dd]/ | [Ee]>[Ee] [Ee][Dd] | %55
 [Cc][Dd] [A,A]2 | [B,B]2 (3GGG | G2 z2 | z2 (3GGG | G2 z2 | z2 (3[Gg][Gg][Gg] | [Gg]2 z2 | %62
 z2 (3[GBdg][GBdg][GBdg] | !fermata![GBdg]4 |] %64
V:2
 [G,,B,,D,G,]2 (3[G,,B,,D,G,][G,,B,,D,G,][G,,B,,D,G,] | %1
 [G,,B,,D,G,]2 (3[G,,B,,D,G,][G,,B,,D,G,][G,,B,,D,G,] | %2
 [G,,B,,D,G,]2 (3:2:2[D,,^F,,A,,D,]2 [D,,F,,A,,D,] | %3
 [G,,B,,D,G,]2 (3[G,,B,,D,G,][G,,B,,D,G,][G,,B,,D,G,] | %4
 [G,,B,,D,G,]2 (3[G,,B,,D,G,][G,,B,,D,G,][G,,B,,D,G,] | %5
 [G,,B,,D,G,]2 (3[D,,^F,,A,,D,][D,,F,,A,,D,][D,,F,,A,,D,] | %6
 [G,,B,,D,G,]2 (3[G,,B,,D,G,][G,,B,,D,G,][G,,B,,D,G,] | %7
 [G,,B,,D,G,]2 (3[G,,B,,D,G,][G,,B,,D,G,][G,,B,,D,G,] | %8
 [B,,D,F,B,]2 (3[B,,D,F,B,][B,,D,F,B,][B,,D,F,B,] | %9
 [B,,D,F,B,]2 (3[B,,D,F,B,][B,,D,F,B,][B,,D,F,B,] | %10
 [A,,D,^F,A,]2 (3[B,,D,=F,B,][B,,D,F,B,][B,,D,F,B,] | [B,,D,F,B,]2 z2 | %12
 [B,,D,F,B,]2 (3[B,,D,F,B,][B,,D,F,B,][B,,D,F,B,] | %13
 [B,,D,F,B,]2 (3[B,,D,F,B,][B,,D,F,B,][B,,D,F,B,] | %14
 [A,,D,^F,A,]2 (3[A,,D,F,A,][A,,D,F,A,][A,,D,F,A,] | %15
 [A,,D,^F,A,]2 (3[A,,D,F,A,][A,,D,F,A,][A,,D,F,A,] | %16
 [A,,D,^F,A,]2 (3[A,,D,F,A,][A,,D,F,A,][A,,D,F,A,] | %17
 [A,,D,^F,A,]2 (3[A,,D,F,A,][A,,D,F,A,][A,,D,F,A,] | %18
 [G,,B,,D,G,]2 (3[G,,B,,D,G,][G,,B,,D,G,][G,,B,,D,G,] | [G,,B,,D,G,]2 (3:2:2[G,,G,]2 [A,,A,] | %20
 [B,,B,]3 z | (3:2:2z [C,C]2 (3:2:2[A,,A,]2 [B,,B,] | [G,,G,]3 z | z2 (3:2:2[B,,B,]2 [C,C] | %24
 [D,D]3 z | (3:2:2z [D,D]2 [F,F][D,D] | [C,C]2 [B,,B,]2 | z2 (3:2:2[B,,B,]2 [C,C] | [D,D]3 z | %29
 (3:2:2z [E,E]2 [A,,A,][B,,B,] | [C,C]3 z | z2 (3:2:2[B,,B,]2 [C,C] | [D,D]3 z | %33
 z [C,C]- (3[C,C][B,,B,][A,,A,] | (3:2:2[B,,B,]2 [G,,G,]- [G,,G,]2 | z4 | %36
 [G,,B,,D,G,]2 (3[G,,B,,D,G,][G,,B,,D,G,][G,,B,,D,G,] | %37
 [G,,B,,D,G,]2 (3[D,,^F,,A,,D,][D,,F,,A,,D,][D,,F,,A,,D,] | %38
 [G,,B,,D,G,]2 (3[G,,B,,D,G,][G,,B,,D,G,][G,,B,,D,G,] | %39
 [G,,B,,D,G,]2 (3[G,,B,,D,G,][G,,B,,D,G,][G,,B,,D,G,] | %40
 [B,,D,F,B,]2 (3[B,,D,F,B,][B,,D,F,B,][B,,D,F,B,] | %41
 [B,,D,F,B,]2 (3[B,,D,F,B,][B,,D,F,B,][B,,D,F,B,] | %42
 [A,,D,^F,A,]2 (3[B,,D,=F,B,][B,,D,F,B,][B,,D,F,B,] | %43
 [B,,D,F,B,]2 (3[B,,D,F,B,][B,,D,F,B,][B,,D,F,B,] | %44
 [B,,D,F,B,]2 (3[B,,D,F,B,][B,,D,F,B,][B,,D,F,B,] | %45
 [B,,D,F,B,]2 (3[B,,D,F,B,][B,,D,F,B,][B,,D,F,B,] | %46
 [A,,D,^F,A,]2 (3[A,,D,F,A,][A,,D,F,A,][A,,D,F,A,] | %47
 [A,,D,^F,A,]2 (3[A,,D,F,A,][A,,D,F,A,][A,,D,F,A,] | %48
 [A,,D,^F,A,]2 (3[A,,D,F,A,][A,,D,F,A,][A,,D,F,A,] | %49
 [A,,D,^F,A,]2 (3[A,,D,F,A,][A,,D,F,A,][A,,D,F,A,] | %50
 [G,,B,,D,G,]2 (3[G,,B,,D,G,][G,,B,,D,G,][G,,B,,D,G,] | %51
 [G,,B,,D,G,]2 (3[G,,B,,D,G,][G,,B,,D,G,][G,,B,,D,G,] | %52
 [G,,B,,D,G,]2 (3[G,,B,,D,G,][G,,B,,D,G,][G,,B,,D,G,] | %53
 [G,,B,,D,G,]2 (3[G,,B,,D,G,][G,,B,,D,G,][G,,B,,D,G,] | %54
 [G,,C,E,G,]2 (3[G,,C,E,G,][G,,C,E,G,][G,,C,E,G,] | %55
 [G,,C,E,G,]2 (3[G,,C,E,G,][G,,C,E,G,][G,,C,E,G,] | %56
 [G,,C,E,G,]2 (3[G,,B,,D,G,][G,,B,,D,G,][G,,B,,D,G,] | %57
 [G,,B,,D,G,]2 (3[G,,B,,D,G,][G,,B,,D,G,][G,,B,,D,G,] | %58
 [G,,B,,D,G,]2 (3[G,,B,,D,G,][G,,B,,D,G,][G,,B,,D,G,] | %59
 [G,,B,,D,G,]2 (3[G,,B,,D,G,][G,,B,,D,G,][G,,B,,D,G,] | %60
 [G,,B,,D,G,]2 (3[G,,B,,D,G,][G,,B,,D,G,][G,,B,,D,G,] | %61
 [G,,B,,D,G,]2 (3[G,,B,,D,G,][G,,B,,D,G,][G,,B,,D,G,] | %62
 [G,,B,,D,G,]2 (3[G,,B,,D,G,][G,,B,,D,G,][G,,B,,D,G,] | !fermata![G,,B,,D,G,]4 |] %64

